svg/fluentui-system-icons/ic_fluent_dishwasher_24_filled.svg

<svg width="24" height="24" viewBox="0 0 24 24" fill="none" xmlns="http://www.w3.org/2000/svg">
<path d="M3 6.25C3 4.45508 4.45507 3 6.25 3H17.75C19.5449 3 21 4.45507 21 6.25V9H3V6.25ZM8.98744 10.5126L8.97474 10.5H21V17.75C21 19.5449 19.5449 21 17.75 21H8.48228C8.37265 20.2336 7.76642 19.6274 7 19.5177V17.6241C8.47426 16.9571 9.5 15.4734 9.5 13.75V11.75C9.5 11.2859 9.31563 10.8408 8.98744 10.5126ZM9 6.25C9 5.69772 8.55228 5.25 8 5.25C7.44772 5.25 7 5.69772 7 6.25C7 6.80228 7.44772 7.25 8 7.25C8.55228 7.25 9 6.80228 9 6.25ZM12.75 5.5C12.3358 5.5 12 5.83579 12 6.25C12 6.66421 12.3358 7 12.75 7H16.25C16.6642 7 17 6.66421 17 6.25C17 5.83579 16.6642 5.5 16.25 5.5H12.75ZM2.75 11C2.33579 11 2 11.3358 2 11.75V13.75C2 15.2868 3.06665 16.5745 4.5 16.913V20.5H3.75C3.33579 20.5 3 20.8358 3 21.25C3 21.6642 3.33579 22 3.75 22H6.75C7.16421 22 7.5 21.6642 7.5 21.25C7.5 20.8358 7.16421 20.5 6.75 20.5H6V16.913C7.43335 16.5745 8.5 15.2868 8.5 13.75V11.75C8.5 11.3358 8.16421 11 7.75 11H2.75Z" fill="#212121"/>
</svg>

<svg xmlns="http://www.w3.org/2000/svg" width="24" height="24"><path d="M3 6.25A3.25 3.25 0 0 1 6.25 3h11.5A3.25 3.25 0 0 1 21 6.25V9H3V6.25Zm5.987 4.263-.012-.013H21v7.25A3.25 3.25 0 0 1 17.75 21H8.482A1.751 1.751 0 0 0 7 19.518v-1.894a4.25 4.25 0 0 0 2.5-3.874v-2c0-.464-.184-.91-.513-1.237ZM9 6.25a1 1 0 1 0-2 0 1 1 0 0 0 2 0Zm3.75-.75a.75.75 0 0 0 0 1.5h3.5a.75.75 0 0 0 0-1.5h-3.5Zm-10 5.5a.75.75 0 0 0-.75.75v2a3.251 3.251 0 0 0 2.5 3.163V20.5h-.75a.75.75 0 0 0 0 1.5h3a.75.75 0 0 0 0-1.5H6v-3.587a3.251 3.251 0 0 0 2.5-3.163v-2a.75.75 0 0 0-.75-.75h-5Z"/></svg>
